folder-lock-open.svg

<svg fill="currentColor" viewBox="0 0 24 24"><path d="M14.2 13.5v1.24c-.7.6-1.2 1.5-1.2 2.46V20H4a2 2 0 0 1-2-2V6c0-1.11.89-2 2-2h6l2 2h8a2 2 0 0 1 2 2v2.04A4.9 4.9 0 0 0 19 9c-2.6 0-4.8 2.06-4.8 4.5m7.6 2.5h-4.3v-2.5c0-.8.7-1.3 1.5-1.3s1.5.5 1.5 1.3v.5h1.3v-.5c0-1.4-1.4-2.5-2.8-2.5s-2.8 1.1-2.8 2.5V16c-.6 0-1.2.6-1.2 1.2v3.5c0 .7.6 1.3 1.2 1.3h5.5c.7 0 1.3-.6 1.3-1.2v-3.5c0-.7-.6-1.3-1.2-1.3"/></svg>

<svg  viewBox="0 0 24 24" fill="currentColor"><path  d="M14.2 13.5V14.74C13.5 15.34 13 16.24 13 17.2V20H4C2.9 20 2 19.11 2 18V6C2 4.89 2.89 4 4 4H10L12 6H20C21.1 6 22 6.89 22 8V10.04C21.17 9.4 20.13 9 19 9C16.4 9 14.2 11.06 14.2 13.5M21.8 16H17.5V13.5C17.5 12.7 18.2 12.2 19 12.2S20.5 12.7 20.5 13.5V14H21.8V13.5C21.8 12.1 20.4 11 19 11S16.2 12.1 16.2 13.5V16C15.6 16 15 16.6 15 17.2V20.7C15 21.4 15.6 22 16.2 22H21.7C22.4 22 23 21.4 23 20.8V17.3C23 16.6 22.4 16 21.8 16Z"/></svg>
